!!!OTL: 1895. An Berchta (Reigenlied).
!!!ODT: 1891
!!!ARE: Europa, Mitteleuropa, Deutschland, Schleswig
!!!SCT: E1895
!!!TXL: @@DE
!!!YEM: Copyright 1995, estate of Helmut Schaffrath.
**kern	**text
*ICvox	*
*M2/4	*
*k[]	*
*C:	*
=1	=1
!LO:TX:a:t=Schleswig 1891.	!
{8g	Wenn
8g	wir
8g	ſah-
8g	-ren
=2	=2
8g	auf
8ee	die
4cc}	See,
=3	=3
{8.dd	ſehn
16cc	den
8b/	Fi-
8a	-ſcher
=4	=4
4a	ſchwim-
8g	-men,
8r}	.
=5	=5
{8g	Freu-
8g	-en
8g	ſich
8g	das
=6	=6
8g	gan-
8ee	-ʒe
4cc}	Heer
=7	=7
{8.dd	und
16cc	den
8b/	Bau-
8a	-er
=8	=8
4a	ſin-
8g	-gen
8r}	.
=9	=9
{4g	Eh-
4e	-re,
=10	=10
4g	weh-
4e	-re;
=11	=11
4g	wir
4ee	ſind
=12	=12
4cc	hier!
8r}	.
{8b	O
=13	=13
4dd	Ver-
8dd	-tha,
8cc	o
=14	=14
4b	Ber-
8b	-tha,
8a	dir
=15	=15
4g	fol-
4cc	-gen
=16	=16
4e	wir!
4r}	.
==	==
!!!AGN: Kinder - Lied, Tanz, Reigen
!!!ONB: ESAC (Essen Associative Code) Database: ERK3
!!!AMT: simple duple
!!!AIN: vox
!!!EED: Helmut Schaffrath
!!!EEV: 1.0
!!!GTL: Einige Kinderlieder. d) Spiel- und Tanzliedchen.
!!!URL-scan: https://rosdok.uni-rostock.de/mcrviewer/recordIdentifier/rosdok_ppn745177999/iview2/phys_0616.iview2?x=94.48407870559095&y=2088.747081902344&scale=0.7014306698522895&rotation=0&layout=singlePageLayout
!!!ENC: Anna Maria Matuszewska
!!!EEV: 2025/09/01
*-	*-
